src/DGGeoclicker/skin/light/img/DGGeoclicker__purposeSight_light.svg

<svg xmlns="http://www.w3.org/2000/svg" width="8" height="12"><path fill-rule="evenodd" clip-rule="evenodd" fill="#666" d="M7 0h-4.453c-2 0-2.547.828-2.547 2.5 0 1.234.5 2.5 2 2.5 1.359 0 2-1.156 2-2 0-.719-1.141-1-2-1 0 .766.234 1 1 1 0 .69-.52 1-1 1-.766 0-1-.671-1-1.5 0-.807.375-1.5 1.5-1.5 1.891 0 2.5.656 2.5 2 0 1.6-.662 2.119-2 3v4h-1v2h6v-11l-1-1zm-3 10v-4l1 1v3h-1zm2 0v-4l1 1v3h-1z"/></svg>

<svg xmlns="http://www.w3.org/2000/svg" width="8" height="12">
    <path d="M 7,0 H 2.547 C 0.547,0 0,0.828 0,2.5 0,3.734 0.5,5 2,5 3.359,5 4,3.844 4,3 4,2.281 2.859,2 2,2 2,2.766 2.234,3 3,3 3,3.69 2.48,4 2,4 1.234,4 1,3.329 1,2.5 1,1.693 1.375,1 2.5,1 4.391,1 5,1.656 5,3 5,4.6 4.338,5.119 3,6 v 4 H 2 v 2 H 8 V 1 L 7,0 z M 4,10 V 6 l 1,1 v 3 H 4 z m 2,0 V 6 l 1,1 v 3 H 6 z" fill="#666" fill-rule="evenodd"/>
</svg>
